src/images/admin/admin_f1_0.svg

<svg height="428" viewBox="0 0 371 428" width="371" xmlns="http://www.w3.org/2000/svg"><path d="m219 847v214l185.5 107 185.5-107v-214l-185.5-107zm94-51.5 3.833333-2.5 7.666667 4.5 7.666667-4.5 3.833333 2.5-7.666667 4.5 7.666667 4.5-3.833333 2.5-7.666667-4.5-7.666667 4.5-3.833333-2.5 7.666667-4.5zm-49 38.333333 11.5-6.833333 23 13.666667 23-13.666667 11.5 6.833333-23 13.666667 23 13.666667-11.5 6.833333-23-13.666667-23 13.178572-11.5-6.833334 23-13.666666zm72 133.219299v-13.263158l22.8 13.263158v-26.052632l11.4 6.631579v26.052632l22.8 13.263157v13.263162l-22.8-13.263162v26.052632l-11.4-7.10526v-26.052635zm0-69.552632-3.833333 2.5-7.666667-4.5-7.666667 4.5-3.833333-2.5 7.666667-4.5-7.666667-4.5 3.833333-2.5 7.666667 4.5 7.666667-4.5 3.833333 2.5-7.666667 4.5zm-33 15.14v-4.32l7.6 4.32v-8.64l3.8 2.4v8.64l7.6 4.32v4.32l-7.6-4.32v8.64l-3.8-2.4v-8.64zm-73-19.944636 22.8 13.165563v-25.860927l11.4 6.582781v25.860928l22.8 13.165563v13.165562l-22.8-13.635761v25.860927l-11.4-6.582781v-25.860928l-22.8-13.165563zm-7 65.944636v-4.32l7.6 4.32v-8.64l3.8 2.4v8.64l7.6 4.32v4.32l-7.6-4.32v8.64l-3.8-2.4v-8.64zm64 102.57053-22.8-13.26316v26.05263l-11.4-6.63158v-26.05263l-22.8-13.26316v-13.26316l22.8 13.26316v-26.05263l11.4 6.63158v26.05263l22.8 13.26316zm35 45.46947-7.6-4.32v8.64l-3.8-2.4v-8.64l-7.6-4.32v-4.32l7.6 4.32v-8.64l3.8 2.4v8.64l7.6 4.32zm-23.294964-30.34102v-61.22034l-52.705036-30.372877v-30.372882l52.705036 30.372882v-60.745763l26.589928 15.186441v61.220339l52.705036 30.37288v30.37288l-52.705036-30.37288v61.22034zm94.294964 45.96566-22.8-13.16557v25.86093l-11.4-6.58278v-25.86093l-22.8-13.16556v-13.16556l22.8 13.16556v-25.39073l11.4 6.58278v25.86093l22.8 13.16556zm8-61.52913-7.6-4.22449v8.44898l-3.8-1.87755v-8.44898l-7.6-4.22449v-4.22449l7.6 4.22449v-8.44898l3.8 2.34694v8.44898l7.6 4.22449zm-19.5-132.257863-11.5-6.752941 23-13.505882-23-13.505883 11.5-6.752941 23 13.988235 23-13.505882 11.5 6.752941-23 13.505882 23 13.505883-11.5 6.752941-23-13.988235zm91.5 25.271827v13.263158l-22.8 13.263157v26.052631l-11.4 6.63158v-26.052632l-22.8 13.263162v-13.263162l22.8-13.263157v-26.052632l11.4-6.631579v26.052632zm0-65.289474 3.833333-2.5 7.666667 4.5 7.666667-4.5 3.833333 2.5-7.666667 4.5 7.666667 4.5-3.833333 2.5-7.666667-4.5-7.666667 4.5-3.833333-2.5 7.666667-4.5zm34 19.82v4.32l-7.6 4.32v8.64l-3.8 2.4v-8.64l-7.6 4.32v-4.32l7.6-4.32v-8.64l3.8-2.4v8.64zm-99 147.73882 7.6-4.23529v-8.47059l3.8-2.35294v8.47059l7.6-4.2353v4.2353l-7.6 4.23529v8.94118l-3.8 2.35294v-8.47059l-7.6 4.2353zm65 33.99381-22.8 13.26316v26.05263l-11.4 6.63158v-26.05263l-22.8 13.26316v-13.26316l22.8-13.26316v-26.05263l11.4-6.63158v26.05263l22.8-13.26316zm34 5.58737-7.6 4.32v8.64l-3.8 2.4v-8.64l-7.6 4.32v-4.32l7.6-4.32v-8.64l3.8-2.4v8.64l7.6-4.32zm3.294964-18.82644-26.589928 15.18644v-61.22034l-52.705036 30.37288v-30.37288l52.705036-30.37288v-61.220339l26.589928-15.186441v61.220339l52.705036-30.372881v30.372881l-52.705036 30.372881zm67.705036-48.76093-22.8 13.26316v26.05263l-11.4 6.63158v-26.05263l-22.8 13.26316v-13.26316l22.8-13.26316v-26.05263l11.4-6.63158v26.05263l22.8-13.26316zm8-69.41263-7.6 4.32v8.64l-3.8 2.4v-8.64l-7.6 4.32v-4.32l7.6-4.32v-8.64l3.8-2.4v8.64l7.6-4.32zm-8-65.463529v13.17647l-22.8 13.176471v25.882353l-11.4 6.588235v-26.352941l-22.8 13.17647v-13.17647l22.8-13.176471v-25.882353l11.4-6.588235v25.882353zm-45.5-66.200281 11.5 6.833334-23 13.666666 23 13.666667-11.5 5.857143-23-13.666667-23 13.666667-11.5-6.833333 23-13.666667-23-13.666667 11.5-6.833333 23 13.666667zm-59.5-31.47619 3.833333-2.5 7.666667 4.5 7.666667-4.5 3.833333 2.5-7.666667 4.5 7.666667 4.5-3.833333 2.5-7.666667-4.5-7.666667 4.5-3.833333-2.5 7.666667-4.5zm11 20.666667-52.841317 30.333333 52.841317 30.333333-26.658683 15.166667-52.841317-30.333333-52.841317 30.333333-26.658683-15.166667 52.841317-30.333333-52.841317-30.333333 26.658683-15.166667 52.841317 30.333333 52.841317-30.333333zm-45-43.931373-23 13.505882 23 13.505883-11.5 6.752941-23-13.988235-23 13.505882-11.5-6.752941 23-13.505882-23-13.505883 11.5-6.752941 23 13.505882 23-13.505882z" fill="#96dbfb" fill-opacity=".5" transform="translate(-219 -740)"/></svg>

<?xml version="1.0" encoding="UTF-8"?>
<svg width="371px" height="428px" viewBox="0 0 371 428" version="1.1" xmlns="http://www.w3.org/2000/svg" xmlns:xlink="http://www.w3.org/1999/xlink">
    <!-- Generator: Sketch 62 (91390) - https://sketch.com -->
    <title>admin_f1_0</title>
    <desc>Created with Sketch.</desc>
    <g id="light" stroke="none" stroke-width="1" fill="none" fill-rule="evenodd" fill-opacity="0.5">
        <g id="Admin" transform="translate(-219.000000, -740.000000)" fill="#96DBFB" fill-rule="nonzero">
            <path d="M219,847 L219,1061 L404.5,1168 L590,1061 L590,847 L404.5,740 L219,847 Z M313,795.5 L316.833333,793 L324.5,797.5 L332.166667,793 L336,795.5 L328.333333,800 L336,804.5 L332.166667,807 L324.5,802.5 L316.833333,807 L313,804.5 L320.666667,800 L313,795.5 Z M264,833.833333 L275.5,827 L298.5,840.666667 L321.5,827 L333,833.833333 L310,847.5 L333,861.166667 L321.5,868 L298.5,854.333333 L275.5,867.511905 L264,860.678571 L287,847.011905 L264,833.833333 Z M336,967.052632 L336,953.789474 L358.8,967.052632 L358.8,941 L370.2,947.631579 L370.2,973.684211 L393,986.947368 L393,1000.21053 L370.2,986.947368 L370.2,1013 L358.8,1005.89474 L358.8,979.842105 L336,967.052632 Z M336,897.5 L332.166667,900 L324.5,895.5 L316.833333,900 L313,897.5 L320.666667,893 L313,888.5 L316.833333,886 L324.5,890.5 L332.166667,886 L336,888.5 L328.333333,893 L336,897.5 Z M303,912.64 L303,908.32 L310.6,912.64 L310.6,904 L314.4,906.4 L314.4,915.04 L322,919.36 L322,923.68 L314.4,919.36 L314.4,928 L310.6,925.6 L310.6,916.96 L303,912.64 Z M230,892.695364 L252.8,905.860927 L252.8,880 L264.2,886.582781 L264.2,912.443709 L287,925.609272 L287,938.774834 L264.2,925.139073 L264.2,951 L252.8,944.417219 L252.8,918.556291 L230,905.390728 L230,892.695364 Z M223,958.64 L223,954.32 L230.6,958.64 L230.6,950 L234.4,952.4 L234.4,961.04 L242,965.36 L242,969.68 L234.4,965.36 L234.4,974 L230.6,971.6 L230.6,962.96 L223,958.64 Z M287,1061.21053 L264.2,1047.94737 L264.2,1074 L252.8,1067.36842 L252.8,1041.31579 L230,1028.05263 L230,1014.78947 L252.8,1028.05263 L252.8,1002 L264.2,1008.63158 L264.2,1034.68421 L287,1047.94737 L287,1061.21053 Z M322,1106.68 L314.4,1102.36 L314.4,1111 L310.6,1108.6 L310.6,1099.96 L303,1095.64 L303,1091.32 L310.6,1095.64 L310.6,1087 L314.4,1089.4 L314.4,1098.04 L322,1102.36 L322,1106.68 Z M298.705036,1076.33898 L298.705036,1015.11864 L246,984.745763 L246,954.372881 L298.705036,984.745763 L298.705036,924 L325.294964,939.186441 L325.294964,1000.40678 L378,1030.77966 L378,1061.15254 L325.294964,1030.77966 L325.294964,1092 L298.705036,1076.33898 Z M393,1122.30464 L370.2,1109.13907 L370.2,1135 L358.8,1128.41722 L358.8,1102.55629 L336,1089.39073 L336,1076.22517 L358.8,1089.39073 L358.8,1064 L370.2,1070.58278 L370.2,1096.44371 L393,1109.60927 L393,1122.30464 Z M401,1060.77551 L393.4,1056.55102 L393.4,1065 L389.6,1063.12245 L389.6,1054.67347 L382,1050.44898 L382,1046.22449 L389.6,1050.44898 L389.6,1042 L393.4,1044.34694 L393.4,1052.79592 L401,1057.02041 L401,1060.77551 L401,1060.77551 Z M381.5,928.517647 L370,921.764706 L393,908.258824 L370,894.752941 L381.5,888 L404.5,901.988235 L427.5,888.482353 L439,895.235294 L416,908.741176 L439,922.247059 L427.5,929 L404.5,915.011765 L381.5,928.517647 Z M473,953.789474 L473,967.052632 L450.2,980.315789 L450.2,1006.36842 L438.8,1013 L438.8,986.947368 L416,1000.21053 L416,986.947368 L438.8,973.684211 L438.8,947.631579 L450.2,941 L450.2,967.052632 L473,953.789474 Z M473,888.5 L476.833333,886 L484.5,890.5 L492.166667,886 L496,888.5 L488.333333,893 L496,897.5 L492.166667,900 L484.5,895.5 L476.833333,900 L473,897.5 L480.666667,893 L473,888.5 Z M507,908.32 L507,912.64 L499.4,916.96 L499.4,925.6 L495.6,928 L495.6,919.36 L488,923.68 L488,919.36 L495.6,915.04 L495.6,906.4 L499.4,904 L499.4,912.64 L507,908.32 Z M408,1056.05882 L415.6,1051.82353 L415.6,1043.35294 L419.4,1041 L419.4,1049.47059 L427,1045.23529 L427,1049.47059 L419.4,1053.70588 L419.4,1062.64706 L415.6,1065 L415.6,1056.52941 L408,1060.76471 L408,1056.05882 Z M473,1090.05263 L450.2,1103.31579 L450.2,1129.36842 L438.8,1136 L438.8,1109.94737 L416,1123.21053 L416,1109.94737 L438.8,1096.68421 L438.8,1070.63158 L450.2,1064 L450.2,1090.05263 L473,1076.78947 L473,1090.05263 Z M507,1095.64 L499.4,1099.96 L499.4,1108.6 L495.6,1111 L495.6,1102.36 L488,1106.68 L488,1102.36 L495.6,1098.04 L495.6,1089.4 L499.4,1087 L499.4,1095.64 L507,1091.32 L507,1095.64 Z M510.294964,1076.81356 L483.705036,1092 L483.705036,1030.77966 L431,1061.15254 L431,1030.77966 L483.705036,1000.40678 L483.705036,939.186441 L510.294964,924 L510.294964,985.220339 L563,954.847458 L563,985.220339 L510.294964,1015.59322 L510.294964,1076.81356 L510.294964,1076.81356 Z M578,1028.05263 L555.2,1041.31579 L555.2,1067.36842 L543.8,1074 L543.8,1047.94737 L521,1061.21053 L521,1047.94737 L543.8,1034.68421 L543.8,1008.63158 L555.2,1002 L555.2,1028.05263 L578,1014.78947 L578,1028.05263 Z M586,958.64 L578.4,962.96 L578.4,971.6 L574.6,974 L574.6,965.36 L567,969.68 L567,965.36 L574.6,961.04 L574.6,952.4 L578.4,950 L578.4,958.64 L586,954.32 L586,958.64 Z M578,893.176471 L578,906.352941 L555.2,919.529412 L555.2,945.411765 L543.8,952 L543.8,925.647059 L521,938.823529 L521,925.647059 L543.8,912.470588 L543.8,886.588235 L555.2,880 L555.2,905.882353 L578,893.176471 Z M532.5,826.97619 L544,833.809524 L521,847.47619 L544,861.142857 L532.5,867 L509.5,853.333333 L486.5,867 L475,860.166667 L498,846.5 L475,832.833333 L486.5,826 L509.5,839.666667 L532.5,826.97619 Z M473,795.5 L476.833333,793 L484.5,797.5 L492.166667,793 L496,795.5 L488.333333,800 L496,804.5 L492.166667,807 L484.5,802.5 L476.833333,807 L473,804.5 L480.666667,800 L473,795.5 Z M484,816.166667 L431.158683,846.5 L484,876.833333 L457.341317,892 L404.5,861.666667 L351.658683,892 L325,876.833333 L377.841317,846.5 L325,816.166667 L351.658683,801 L404.5,831.333333 L457.341317,801 L484,816.166667 Z M439,772.235294 L416,785.741176 L439,799.247059 L427.5,806 L404.5,792.011765 L381.5,805.517647 L370,798.764706 L393,785.258824 L370,771.752941 L381.5,765 L404.5,778.505882 L427.5,765 L439,772.235294 Z" id="admin_f1_0"></path>
        </g>
    </g>
</svg>
